svgs/light/diagram-sankey.svg

<svg xmlns="http://www.w3.org/2000/svg" viewBox="0 0 576 512"><!--! Font Awesome Pro 6.4.2 by @fontawesome - https://fontawesome.com License - https://fontawesome.com/license (Commercial License) Copyright 2023 Fonticons, Inc. --><path d="M354.1 64c-5.6 0-10.8 2.9-13.7 7.8L263 200.7c-8.7 14.5-24.3 23.3-41.2 23.3H16c-8.8 0-16-7.2-16-16s7.2-16 16-16H221.9c5.6 0 10.8-2.9 13.7-7.8L313 55.3C321.6 40.8 337.3 32 354.1 32H560c8.8 0 16 7.2 16 16s-7.2 16-16 16H354.1zM201.7 320l74.5 120.4c2.9 4.7 8.1 7.6 13.6 7.6H560c8.8 0 16 7.2 16 16s-7.2 16-16 16H289.8c-16.6 0-32.1-8.6-40.8-22.7L164 320H16c-8.8 0-16-7.2-16-16s7.2-16 16-16H180.9l.7-.4 .3 .4H560c8.8 0 16 7.2 16 16s-7.2 16-16 16H201.7z"/></svg>

<svg xmlns="http://www.w3.org/2000/svg" viewBox="0 0 576 512"><!--! Font Awesome Pro 6.1.1 by @fontawesome - https://fontawesome.com License - https://fontawesome.com/license (Commercial License) Copyright 2022 Fonticons, Inc. --><path d="M354.1 64C348.5 64 343.3 66.95 340.4 71.77L263 200.7C254.4 215.2 238.7 224 221.9 224H16C7.164 224 0 216.8 0 208C0 199.2 7.164 192 16 192H221.9C227.5 192 232.7 189.1 235.6 184.2L312.1 55.3C321.6 40.85 337.3 32 354.1 32H560C568.8 32 576 39.16 576 48C576 56.84 568.8 64 560 64H354.1zM201.7 320L276.2 440.4C279.1 445.1 284.3 448 289.8 448H560C568.8 448 576 455.2 576 464C576 472.8 568.8 480 560 480H289.8C273.2 480 257.8 471.4 249 457.3L164 320H16C7.164 320 .0003 312.8 .0003 304C.0003 295.2 7.164 288 16 288H180.9L181.6 287.6L181.9 288H560C568.8 288 576 295.2 576 304C576 312.8 568.8 320 560 320H201.7z"/></svg>
